images/prop7.svg

<svg version="1.1" xmlns="http://www.w3.org/2000/svg" xmlns:xlink="http://www.w3.org/1999/xlink" width="1148" height="642"><defs><clipPath id="iPAxBfulOrqA"><path fill="none" stroke="none" d=" M 0 0 L 1148 0 L 1148 642 L 0 642 L 0 0 Z"/></clipPath></defs><g transform="scale(1,1)" clip-path="url(#iPAxBfulOrqA)"><g><rect fill="rgb(255,255,255)" stroke="none" x="0" y="0" width="1148" height="642" fill-opacity="1"/><path fill="rgb(153,51,0)" stroke="none" paint-order="stroke fill markers" fill-rule="evenodd" d=" M 350 377.9999999999993 L 740 445 L 693.9999999999999 155 Z" fill-opacity="0.09803921568627451"/><path fill="rgb(153,51,0)" stroke="none" paint-order="stroke fill markers" fill-rule="evenodd" d=" M 350 377.9999999999993 L 740 445 L 572 130 Z" fill-opacity="0.09803921568627451"/><path fill="none" stroke="rgb(153,51,0)" paint-order="fill stroke markers" d=" M 350 377.9999999999993 L 740 445" stroke-opacity="0.6980392156862745" stroke-linecap="round" stroke-linejoin="round" stroke-miterlimit="10" stroke-width="2.5"/><path fill="none" stroke="rgb(153,51,0)" paint-order="fill stroke markers" d=" M 740 445 L 693.9999999999999 155" stroke-opacity="0.6980392156862745" stroke-linecap="round" stroke-linejoin="round" stroke-miterlimit="10" stroke-width="2.5"/><path fill="none" stroke="rgb(153,51,0)" paint-order="fill stroke markers" d=" M 693.9999999999999 155 L 350 377.9999999999993" stroke-opacity="0.6980392156862745" stroke-linecap="round" stroke-linejoin="round" stroke-miterlimit="10" stroke-width="2.5"/><path fill="none" stroke="rgb(153,51,0)" paint-order="fill stroke markers" d=" M 350 377.9999999999993 L 740 445" stroke-opacity="0.6980392156862745" stroke-linecap="round" stroke-linejoin="round" stroke-miterlimit="10" stroke-width="2.5"/><path fill="none" stroke="rgb(153,51,0)" paint-order="fill stroke markers" d=" M 740 445 L 572 130" stroke-opacity="0.6980392156862745" stroke-linecap="round" stroke-linejoin="round" stroke-miterlimit="10" stroke-width="2.5"/><path fill="none" stroke="rgb(153,51,0)" paint-order="fill stroke markers" d=" M 572 130 L 350 377.9999999999993" stroke-opacity="0.6980392156862745" stroke-linecap="round" stroke-linejoin="round" stroke-miterlimit="10" stroke-width="2.5"/><path fill="none" stroke="rgb(0,0,0)" paint-order="fill stroke markers" d=" M 693.9999999999999 155 L 572 130" stroke-opacity="0.6980392156862745" stroke-linecap="round" stroke-linejoin="round" stroke-miterlimit="10" stroke-width="2.5"/><path fill="rgb(77,77,255)" stroke="none" paint-order="stroke fill markers" d=" M 355 377.9999999999993 C 355 380.76142374915327 352.76142374915395 382.9999999999993 350 382.9999999999993 C 347.23857625084605 382.9999999999993 345 380.76142374915327 345 377.9999999999993 C 345 375.23857625084537 347.23857625084605 372.9999999999993 350 372.9999999999993 C 352.76142374915395 372.9999999999993 355 375.23857625084537 355 377.9999999999993 Z" fill-opacity="1"/><path fill="none" stroke="rgb(0,0,0)" paint-order="fill stroke markers" d=" M 355 377.9999999999993 C 355 380.76142374915327 352.76142374915395 382.9999999999993 350 382.9999999999993 C 347.23857625084605 382.9999999999993 345 380.76142374915327 345 377.9999999999993 C 345 375.23857625084537 347.23857625084605 372.9999999999993 350 372.9999999999993 C 352.76142374915395 372.9999999999993 355 375.23857625084537 355 377.9999999999993 Z" stroke-opacity="1" stroke-linecap="round" stroke-linejoin="round" stroke-miterlimit="10"/><text fill="rgb(77,77,255)" stroke="none" font-family="geogebra-sans-serif, sans-serif" font-size="16px" font-style="normal" font-weight="normal" text-decoration="normal" x="354" y="368" text-anchor="start" dominant-baseline="alphabetic" fill-opacity="1">A</text><text fill="none" stroke="rgb(255,255,255)" font-family="geogebra-sans-serif, sans-serif" font-size="16px" font-style="normal" font-weight="normal" text-decoration="normal" x="354" y="368" text-anchor="start" dominant-baseline="alphabetic" stroke-opacity="1" stroke-linejoin="bevel" stroke-miterlimit="10" stroke-width="3">A</text><text fill="rgb(77,77,255)" stroke="none" font-family="geogebra-sans-serif, sans-serif" font-size="16px" font-style="normal" font-weight="normal" text-decoration="normal" x="354" y="368" text-anchor="start" dominant-baseline="alphabetic" fill-opacity="1">A</text><path fill="rgb(77,77,255)" stroke="none" paint-order="stroke fill markers" d=" M 745 445 C 745 447.76142374915395 742.761423749154 450 740 450 C 737.238576250846 450 735 447.76142374915395 735 445 C 735 442.23857625084605 737.238576250846 440 740 440 C 742.761423749154 440 745 442.23857625084605 745 445 Z" fill-opacity="1"/><path fill="none" stroke="rgb(0,0,0)" paint-order="fill stroke markers" d=" M 745 445 C 745 447.76142374915395 742.761423749154 450 740 450 C 737.238576250846 450 735 447.76142374915395 735 445 C 735 442.23857625084605 737.238576250846 440 740 440 C 742.761423749154 440 745 442.23857625084605 745 445 Z" stroke-opacity="1" stroke-linecap="round" stroke-linejoin="round" stroke-miterlimit="10"/><text fill="rgb(77,77,255)" stroke="none" font-family="geogebra-sans-serif, sans-serif" font-size="16px" font-style="normal" font-weight="normal" text-decoration="normal" x="744" y="435" text-anchor="start" dominant-baseline="alphabetic" fill-opacity="1">B</text><text fill="none" stroke="rgb(255,255,255)" font-family="geogebra-sans-serif, sans-serif" font-size="16px" font-style="normal" font-weight="normal" text-decoration="normal" x="744" y="435" text-anchor="start" dominant-baseline="alphabetic" stroke-opacity="1" stroke-linejoin="bevel" stroke-miterlimit="10" stroke-width="3">B</text><text fill="rgb(77,77,255)" stroke="none" font-family="geogebra-sans-serif, sans-serif" font-size="16px" font-style="normal" font-weight="normal" text-decoration="normal" x="744" y="435" text-anchor="start" dominant-baseline="alphabetic" fill-opacity="1">B</text><path fill="rgb(77,77,255)" stroke="none" paint-order="stroke fill markers" d=" M 698.9999999999999 155 C 698.9999999999999 157.76142374915398 696.7614237491539 160 693.9999999999999 160 C 691.2385762508459 160 688.9999999999999 157.76142374915398 688.9999999999999 155 C 688.9999999999999 152.23857625084602 691.2385762508459 150 693.9999999999999 150 C 696.7614237491539 150 698.9999999999999 152.23857625084602 698.9999999999999 155 Z" fill-opacity="1"/><path fill="none" stroke="rgb(0,0,0)" paint-order="fill stroke markers" d=" M 698.9999999999999 155 C 698.9999999999999 157.76142374915398 696.7614237491539 160 693.9999999999999 160 C 691.2385762508459 160 688.9999999999999 157.76142374915398 688.9999999999999 155 C 688.9999999999999 152.23857625084602 691.2385762508459 150 693.9999999999999 150 C 696.7614237491539 150 698.9999999999999 152.23857625084602 698.9999999999999 155 Z" stroke-opacity="1" stroke-linecap="round" stroke-linejoin="round" stroke-miterlimit="10"/><text fill="rgb(77,77,255)" stroke="none" font-family="geogebra-sans-serif, sans-serif" font-size="16px" font-style="normal" font-weight="normal" text-decoration="normal" x="698" y="145" text-anchor="start" dominant-baseline="alphabetic" fill-opacity="1">C</text><text fill="none" stroke="rgb(255,255,255)" font-family="geogebra-sans-serif, sans-serif" font-size="16px" font-style="normal" font-weight="normal" text-decoration="normal" x="698" y="145" text-anchor="start" dominant-baseline="alphabetic" stroke-opacity="1" stroke-linejoin="bevel" stroke-miterlimit="10" stroke-width="3">C</text><text fill="rgb(77,77,255)" stroke="none" font-family="geogebra-sans-serif, sans-serif" font-size="16px" font-style="normal" font-weight="normal" text-decoration="normal" x="698" y="145" text-anchor="start" dominant-baseline="alphabetic" fill-opacity="1">C</text><path fill="rgb(77,77,255)" stroke="none" paint-order="stroke fill markers" d=" M 577 130 C 577 132.76142374915398 574.761423749154 135 572 135 C 569.238576250846 135 567 132.76142374915398 567 130 C 567 127.23857625084604 569.238576250846 125 572 125 C 574.761423749154 125 577 127.23857625084604 577 130 Z" fill-opacity="1"/><path fill="none" stroke="rgb(0,0,0)" paint-order="fill stroke markers" d=" M 577 130 C 577 132.76142374915398 574.761423749154 135 572 135 C 569.238576250846 135 567 132.76142374915398 567 130 C 567 127.23857625084604 569.238576250846 125 572 125 C 574.761423749154 125 577 127.23857625084604 577 130 Z" stroke-opacity="1" stroke-linecap="round" stroke-linejoin="round" stroke-miterlimit="10"/><text fill="rgb(77,77,255)" stroke="none" font-family="geogebra-sans-serif, sans-serif" font-size="16px" font-style="normal" font-weight="normal" text-decoration="normal" x="576" y="120" text-anchor="start" dominant-baseline="alphabetic" fill-opacity="1">D</text><text fill="none" stroke="rgb(255,255,255)" font-family="geogebra-sans-serif, sans-serif" font-size="16px" font-style="normal" font-weight="normal" text-decoration="normal" x="576" y="120" text-anchor="start" dominant-baseline="alphabetic" stroke-opacity="1" stroke-linejoin="bevel" stroke-miterlimit="10" stroke-width="3">D</text><text fill="rgb(77,77,255)" stroke="none" font-family="geogebra-sans-serif, sans-serif" font-size="16px" font-style="normal" font-weight="normal" text-decoration="normal" x="576" y="120" text-anchor="start" dominant-baseline="alphabetic" fill-opacity="1">D</text></g></g></svg>

<?xml version="1.0" encoding="UTF-8" standalone="no"?>
<svg
   version="1.1"
   width="434.49008"
   height="374.23834"
   id="svg71"
   sodipodi:docname="prop7.svg"
   inkscape:version="1.1.2 (b8e25be833, 2022-02-05)"
   xmlns:inkscape="http://www.inkscape.org/namespaces/inkscape"
   xmlns:sodipodi="http://sodipodi.sourceforge.net/DTD/sodipodi-0.dtd"
   xmlns="http://www.w3.org/2000/svg"
   xmlns:svg="http://www.w3.org/2000/svg">
  <sodipodi:namedview
     id="namedview73"
     pagecolor="#ffffff"
     bordercolor="#666666"
     borderopacity="1.0"
     inkscape:pageshadow="2"
     inkscape:pageopacity="0.0"
     inkscape:pagecheckerboard="0"
     showgrid="false"
     inkscape:zoom="1.258567"
     inkscape:cx="245.12005"
     inkscape:cy="226.05074"
     inkscape:window-width="1920"
     inkscape:window-height="1001"
     inkscape:window-x="-9"
     inkscape:window-y="-9"
     inkscape:window-maximized="1"
     inkscape:current-layer="g67" />
  <defs
     id="defs5">
    <clipPath
       id="iPAxBfulOrqA">
      <path
         fill="none"
         stroke="none"
         d="M 0,0 H 1148 V 642 H 0 Z"
         id="path2" />
    </clipPath>
  </defs>
  <g
     clip-path="url(#iPAxBfulOrqA)"
     id="g69"
     transform="translate(-328.94553,-95.343323)">
    <g
       id="g67">
      <rect
         fill="#ffffff"
         stroke="none"
         x="328.94553"
         y="95.343323"
         width="434.49008"
         height="374.23834"
         fill-opacity="1"
         id="rect7"
         style="stroke-width:0.999998" />
      <path
         fill="#993300"
         stroke="none"
         paint-order="stroke fill markers"
         fill-rule="evenodd"
         d="M 350,378 740,445 694,155 Z"
         fill-opacity="0.0980392"
         id="path9" />
      <path
         fill="#993300"
         stroke="none"
         paint-order="stroke fill markers"
         fill-rule="evenodd"
         d="M 350,378 740,445 572,130 Z"
         fill-opacity="0.0980392"
         id="path11" />
      <path
         fill="none"
         stroke="#993300"
         paint-order="fill stroke markers"
         d="m 350,378 390,67"
         stroke-opacity="0.698039"
         stroke-linecap="round"
         stroke-linejoin="round"
         stroke-miterlimit="10"
         stroke-width="2.5"
         id="path13" />
      <path
         fill="none"
         stroke="#993300"
         paint-order="fill stroke markers"
         d="M 740,445 694,155"
         stroke-opacity="0.698039"
         stroke-linecap="round"
         stroke-linejoin="round"
         stroke-miterlimit="10"
         stroke-width="2.5"
         id="path15" />
      <path
         fill="none"
         stroke="#993300"
         paint-order="fill stroke markers"
         d="M 694,155 350,378"
         stroke-opacity="0.698039"
         stroke-linecap="round"
         stroke-linejoin="round"
         stroke-miterlimit="10"
         stroke-width="2.5"
         id="path17" />
      <path
         fill="none"
         stroke="#993300"
         paint-order="fill stroke markers"
         d="m 350,378 390,67"
         stroke-opacity="0.698039"
         stroke-linecap="round"
         stroke-linejoin="round"
         stroke-miterlimit="10"
         stroke-width="2.5"
         id="path19" />
      <path
         fill="none"
         stroke="#993300"
         paint-order="fill stroke markers"
         d="M 740,445 572,130"
         stroke-opacity="0.698039"
         stroke-linecap="round"
         stroke-linejoin="round"
         stroke-miterlimit="10"
         stroke-width="2.5"
         id="path21" />
      <path
         fill="none"
         stroke="#993300"
         paint-order="fill stroke markers"
         d="M 572,130 350,378"
         stroke-opacity="0.698039"
         stroke-linecap="round"
         stroke-linejoin="round"
         stroke-miterlimit="10"
         stroke-width="2.5"
         id="path23" />
      <path
         fill="none"
         stroke="#000000"
         paint-order="fill stroke markers"
         d="M 694,155 572,130"
         stroke-opacity="0.698039"
         stroke-linecap="round"
         stroke-linejoin="round"
         stroke-miterlimit="10"
         stroke-width="2.5"
         id="path25" />
      <path
         fill="#4d4dff"
         stroke="none"
         paint-order="stroke fill markers"
         d="m 355,378 c 0,2.76142 -2.23858,5 -5,5 -2.76142,0 -5,-2.23858 -5,-5 0,-2.76142 2.23858,-5 5,-5 2.76142,0 5,2.23858 5,5 z"
         fill-opacity="1"
         id="path27" />
      <path
         fill="none"
         stroke="#000000"
         paint-order="fill stroke markers"
         d="m 355,378 c 0,2.76142 -2.23858,5 -5,5 -2.76142,0 -5,-2.23858 -5,-5 0,-2.76142 2.23858,-5 5,-5 2.76142,0 5,2.23858 5,5 z"
         stroke-opacity="1"
         stroke-linecap="round"
         stroke-linejoin="round"
         stroke-miterlimit="10"
         id="path29" />
      <text
         fill="#4d4dff"
         stroke="none"
         font-family="geogebra-sans-serif, sans-serif"
         font-size="16px"
         font-style="normal"
         font-weight="normal"
         text-decoration="normal"
         x="354"
         y="368"
         text-anchor="start"
         dominant-baseline="alphabetic"
         fill-opacity="1"
         id="text31">A</text>
      <text
         fill="none"
         stroke="#ffffff"
         font-family="geogebra-sans-serif, sans-serif"
         font-size="16px"
         font-style="normal"
         font-weight="normal"
         text-decoration="normal"
         x="354"
         y="368"
         text-anchor="start"
         dominant-baseline="alphabetic"
         stroke-opacity="1"
         stroke-linejoin="bevel"
         stroke-miterlimit="10"
         stroke-width="3"
         id="text33">A</text>
      <text
         fill="#4d4dff"
         stroke="none"
         font-family="geogebra-sans-serif, sans-serif"
         font-size="16px"
         font-style="normal"
         font-weight="normal"
         text-decoration="normal"
         x="354"
         y="368"
         text-anchor="start"
         dominant-baseline="alphabetic"
         fill-opacity="1"
         id="text35">A</text>
      <path
         fill="#4d4dff"
         stroke="none"
         paint-order="stroke fill markers"
         d="m 745,445 c 0,2.76142 -2.23858,5 -5,5 -2.76142,0 -5,-2.23858 -5,-5 0,-2.76142 2.23858,-5 5,-5 2.76142,0 5,2.23858 5,5 z"
         fill-opacity="1"
         id="path37" />
      <path
         fill="none"
         stroke="#000000"
         paint-order="fill stroke markers"
         d="m 745,445 c 0,2.76142 -2.23858,5 -5,5 -2.76142,0 -5,-2.23858 -5,-5 0,-2.76142 2.23858,-5 5,-5 2.76142,0 5,2.23858 5,5 z"
         stroke-opacity="1"
         stroke-linecap="round"
         stroke-linejoin="round"
         stroke-miterlimit="10"
         id="path39" />
      <text
         fill="#4d4dff"
         stroke="none"
         font-family="geogebra-sans-serif, sans-serif"
         font-size="16px"
         font-style="normal"
         font-weight="normal"
         text-decoration="normal"
         x="744"
         y="435"
         text-anchor="start"
         dominant-baseline="alphabetic"
         fill-opacity="1"
         id="text41">B</text>
      <text
         fill="none"
         stroke="#ffffff"
         font-family="geogebra-sans-serif, sans-serif"
         font-size="16px"
         font-style="normal"
         font-weight="normal"
         text-decoration="normal"
         x="744"
         y="435"
         text-anchor="start"
         dominant-baseline="alphabetic"
         stroke-opacity="1"
         stroke-linejoin="bevel"
         stroke-miterlimit="10"
         stroke-width="3"
         id="text43">B</text>
      <text
         fill="#4d4dff"
         stroke="none"
         font-family="geogebra-sans-serif, sans-serif"
         font-size="16px"
         font-style="normal"
         font-weight="normal"
         text-decoration="normal"
         x="744"
         y="435"
         text-anchor="start"
         dominant-baseline="alphabetic"
         fill-opacity="1"
         id="text45">B</text>
      <path
         fill="#4d4dff"
         stroke="none"
         paint-order="stroke fill markers"
         d="m 699,155 c 0,2.76142 -2.23858,5 -5,5 -2.76142,0 -5,-2.23858 -5,-5 0,-2.76142 2.23858,-5 5,-5 2.76142,0 5,2.23858 5,5 z"
         fill-opacity="1"
         id="path47" />
      <path
         fill="none"
         stroke="#000000"
         paint-order="fill stroke markers"
         d="m 699,155 c 0,2.76142 -2.23858,5 -5,5 -2.76142,0 -5,-2.23858 -5,-5 0,-2.76142 2.23858,-5 5,-5 2.76142,0 5,2.23858 5,5 z"
         stroke-opacity="1"
         stroke-linecap="round"
         stroke-linejoin="round"
         stroke-miterlimit="10"
         id="path49" />
      <text
         fill="#4d4dff"
         stroke="none"
         font-family="geogebra-sans-serif, sans-serif"
         font-size="16px"
         font-style="normal"
         font-weight="normal"
         text-decoration="normal"
         x="698"
         y="145"
         text-anchor="start"
         dominant-baseline="alphabetic"
         fill-opacity="1"
         id="text51">C</text>
      <text
         fill="none"
         stroke="#ffffff"
         font-family="geogebra-sans-serif, sans-serif"
         font-size="16px"
         font-style="normal"
         font-weight="normal"
         text-decoration="normal"
         x="698"
         y="145"
         text-anchor="start"
         dominant-baseline="alphabetic"
         stroke-opacity="1"
         stroke-linejoin="bevel"
         stroke-miterlimit="10"
         stroke-width="3"
         id="text53">C</text>
      <text
         fill="#4d4dff"
         stroke="none"
         font-family="geogebra-sans-serif, sans-serif"
         font-size="16px"
         font-style="normal"
         font-weight="normal"
         text-decoration="normal"
         x="698"
         y="145"
         text-anchor="start"
         dominant-baseline="alphabetic"
         fill-opacity="1"
         id="text55">C</text>
      <path
         fill="#4d4dff"
         stroke="none"
         paint-order="stroke fill markers"
         d="m 577,130 c 0,2.76142 -2.23858,5 -5,5 -2.76142,0 -5,-2.23858 -5,-5 0,-2.76142 2.23858,-5 5,-5 2.76142,0 5,2.23858 5,5 z"
         fill-opacity="1"
         id="path57" />
      <path
         fill="none"
         stroke="#000000"
         paint-order="fill stroke markers"
         d="m 577,130 c 0,2.76142 -2.23858,5 -5,5 -2.76142,0 -5,-2.23858 -5,-5 0,-2.76142 2.23858,-5 5,-5 2.76142,0 5,2.23858 5,5 z"
         stroke-opacity="1"
         stroke-linecap="round"
         stroke-linejoin="round"
         stroke-miterlimit="10"
         id="path59" />
      <text
         fill="#4d4dff"
         stroke="none"
         font-family="geogebra-sans-serif, sans-serif"
         font-size="16px"
         font-style="normal"
         font-weight="normal"
         text-decoration="normal"
         x="576"
         y="120"
         text-anchor="start"
         dominant-baseline="alphabetic"
         fill-opacity="1"
         id="text61">D</text>
      <text
         fill="none"
         stroke="#ffffff"
         font-family="geogebra-sans-serif, sans-serif"
         font-size="16px"
         font-style="normal"
         font-weight="normal"
         text-decoration="normal"
         x="576"
         y="120"
         text-anchor="start"
         dominant-baseline="alphabetic"
         stroke-opacity="1"
         stroke-linejoin="bevel"
         stroke-miterlimit="10"
         stroke-width="3"
         id="text63">D</text>
      <text
         fill="#4d4dff"
         stroke="none"
         font-family="geogebra-sans-serif, sans-serif"
         font-size="16px"
         font-style="normal"
         font-weight="normal"
         text-decoration="normal"
         x="576"
         y="120"
         text-anchor="start"
         dominant-baseline="alphabetic"
         fill-opacity="1"
         id="text65">D</text>
    </g>
  </g>
</svg>
